icons/stopwatch-16.svg

<svg xmlns="http://www.w3.org/2000/svg" width="16" height="16" viewBox="0 0 16 16"><path d="M5.75.75A.75.75 0 016.5 0h3a.75.75 0 010 1.5h-.75v1l-.001.041a6.724 6.724 0 013.464 1.435l.007-.006.75-.75a.749.749 0 011.275.326.749.749 0 01-.215.734l-.75.75-.006.007a6.75 6.75 0 11-10.548 0L2.72 5.03l-.75-.75a.751.751 0 01.018-1.042.751.751 0 011.042-.018l.75.75.007.006A6.72 6.72 0 017.25 2.541V1.5H6.5a.75.75 0 01-.75-.75zM8 14.5a5.25 5.25 0 10-.001-10.501A5.25 5.25 0 008 14.5zm.389-6.7l1.33-1.33a.75.75 0 111.061 1.06L9.45 8.861A1.503 1.503 0 018 10.75a1.499 1.499 0 11.389-2.95z"/></svg>

<svg xmlns="http://www.w3.org/2000/svg" width="16" height="16" viewBox="0 0 16 16">
  <defs/>
  <path d="M5.75,0.75 C5.75,0.336 6.086,0 6.5,0 L9.5,0 C9.914,0 10.25,0.336 10.25,0.75 C10.25,1.164 9.914,1.5 9.5,1.5 L8.75,1.5 L8.75,2.5 L8.749,2.541 C10.016,2.681 11.218,3.179 12.213,3.976 L12.22,3.97 L12.97,3.22 C13.157,3.019 13.439,2.937 13.704,3.005 C13.97,3.072 14.178,3.28 14.245,3.546 C14.313,3.811 14.231,4.093 14.03,4.28 L13.28,5.03 L13.274,5.037 C15.479,7.798 15.182,11.792 12.592,14.197 C10.003,16.601 5.997,16.601 3.408,14.197 C0.818,11.792 0.521,7.798 2.726,5.037 L2.72,5.03 L1.97,4.28 C1.695,3.984 1.703,3.524 1.988,3.238 C2.274,2.953 2.734,2.945 3.03,3.22 L3.78,3.97 L3.787,3.976 C4.782,3.179 5.983,2.681 7.25,2.541 C7.25,2.527 7.25,2.514 7.25,2.5 L7.25,1.5 L6.5,1.5 C6.086,1.5 5.75,1.164 5.75,0.75 Z M8,14.5 C10.899,14.5 13.25,12.149 13.25,9.25 C13.25,6.351 10.899,4 8,4 C5.101,4 2.75,6.351 2.75,9.25 C2.75,12.149 5.101,14.5 8,14.5 Z M8.389,7.8 L9.719,6.47 C9.907,6.275 10.186,6.197 10.448,6.265 C10.711,6.334 10.915,6.538 10.984,6.801 C11.053,7.063 10.975,7.342 10.78,7.53 L9.45,8.861 C9.57,9.312 9.474,9.793 9.19,10.163 C8.906,10.533 8.466,10.75 8,10.75 C7.418,10.748 6.89,10.41 6.645,9.882 C6.399,9.355 6.481,8.733 6.855,8.287 C7.229,7.841 7.827,7.651 8.389,7.8 Z"/>
</svg>
